svg_schematique/SCH VL R A S C.svg

<?xml version="1.0" encoding="UTF-8"?>
<svg xmlns="http://www.w3.org/2000/svg" xmlns:xlink="http://www.w3.org/1999/xlink" width="128px" height="128px" viewBox="0 0 128 128" version="1.1">
<g id="surface1">
<rect y="0" x="0" height="128" width="128" id="rect842" style="fill:#ffffff;fill-opacity:0;stroke:none;" />
<path style="fill-rule:nonzero;fill:rgb(100%,100%,100%);fill-opacity:1;stroke-width:1.00004;stroke-linecap:round;stroke-linejoin:round;stroke:rgb(0%,0%,0%);stroke-opacity:1;stroke-miterlimit:4;" d="M 26.5 27.5 L 37.5 27.5 L 37.5 63.5 L 26.5 63.5 Z M 26.5 27.5 " transform="matrix(2,0,0,2,0,0)"/>
<path style=" stroke:none;fill-rule:nonzero;fill:rgb(0%,0%,0%);fill-opacity:1;" d="M 60.015625 66.175781 L 62.492188 58.394531 C 62.578125 58.132812 62.730469 58 62.949219 58 C 63.257812 58 63.410156 58.132812 63.410156 58.394531 C 63.410156 58.484375 63.390625 58.578125 63.359375 58.683594 L 60.464844 67.691406 C 60.398438 67.894531 60.246094 68 60.007812 68 C 59.769531 68 59.617188 67.894531 59.550781 67.691406 L 56.632812 58.683594 C 56.601562 58.578125 56.585938 58.484375 56.585938 58.394531 C 56.585938 58.132812 56.734375 58 57.035156 58 C 57.246094 58 57.394531 58.132812 57.480469 58.394531 Z M 60.015625 66.175781 "/>
<path style=" stroke:none;fill-rule:nonzero;fill:rgb(0%,0%,0%);fill-opacity:1;" d="M 65.746094 66.878906 L 70.808594 66.878906 C 71.214844 66.878906 71.414062 67.035156 71.414062 67.351562 C 71.414062 67.65625 71.214844 67.808594 70.808594 67.808594 L 65.289062 67.808594 C 65.160156 67.808594 65.046875 67.773438 64.945312 67.695312 C 64.839844 67.617188 64.789062 67.492188 64.789062 67.324219 L 64.789062 58.65625 C 64.789062 58.21875 64.949219 58 65.265625 58 C 65.585938 58 65.746094 58.230469 65.746094 58.695312 Z M 65.746094 66.878906 "/>
<path style=" stroke:none;fill-rule:nonzero;fill:rgb(0%,0%,0%);fill-opacity:1;" d="M 65.230469 77.476562 L 67.289062 81.167969 C 67.371094 81.316406 67.414062 81.457031 67.414062 81.589844 C 67.414062 81.867188 67.269531 82.003906 66.976562 82.003906 C 66.773438 82.003906 66.601562 81.882812 66.464844 81.644531 L 64.238281 77.675781 L 61.550781 77.675781 L 61.550781 81.453125 C 61.550781 81.820312 61.390625 82.003906 61.070312 82.003906 C 60.746094 82.003906 60.585938 81.820312 60.585938 81.453125 L 60.585938 72.710938 C 60.585938 72.511719 60.617188 72.375 60.683594 72.300781 C 60.75 72.226562 60.882812 72.1875 61.078125 72.1875 L 64.621094 72.1875 C 65.433594 72.1875 66.058594 72.445312 66.5 72.957031 C 66.914062 73.441406 67.117188 74.09375 67.117188 74.921875 C 67.117188 75.671875 66.984375 76.234375 66.710938 76.605469 C 66.441406 76.972656 65.949219 77.265625 65.230469 77.476562 Z M 61.550781 76.746094 L 64.195312 76.746094 C 65.507812 76.746094 66.160156 76.140625 66.160156 74.929688 C 66.160156 74.402344 66.046875 73.980469 65.816406 73.660156 C 65.558594 73.292969 65.175781 73.113281 64.667969 73.113281 L 61.550781 73.113281 Z M 61.550781 76.746094 "/>
<path style=" stroke:none;fill-rule:nonzero;fill:rgb(0%,0%,0%);fill-opacity:1;" d="M 65.878906 93.019531 L 62.0625 93.019531 L 61.519531 95.714844 C 61.480469 95.902344 61.34375 95.996094 61.101562 95.996094 C 60.769531 95.996094 60.613281 95.867188 60.632812 95.601562 C 60.644531 95.421875 60.886719 94.15625 61.355469 91.808594 C 61.789062 89.667969 62.082031 88.265625 62.238281 87.605469 C 62.457031 86.535156 63.042969 86 63.996094 86 C 64.949219 86 65.535156 86.535156 65.757812 87.605469 C 66.046875 88.980469 66.339844 90.355469 66.628906 91.730469 C 67.125 94.078125 67.371094 95.34375 67.371094 95.527344 C 67.371094 95.84375 67.203125 96.003906 66.871094 96.003906 C 66.605469 96.003906 66.453125 95.890625 66.40625 95.660156 Z M 62.222656 92.089844 L 65.695312 92.089844 L 64.914062 88.125 C 64.757812 87.328125 64.4375 86.925781 63.949219 86.925781 C 63.65625 86.925781 63.4375 87.039062 63.285156 87.257812 C 63.164062 87.441406 63.0625 87.753906 62.976562 88.195312 Z M 62.222656 92.089844 "/>
<path style=" stroke:none;fill-rule:nonzero;fill:rgb(0%,0%,0%);fill-opacity:1;" d="M 60.691406 102.574219 C 60.691406 101.695312 61.011719 101.03125 61.648438 100.582031 C 62.203125 100.191406 62.9375 99.996094 63.851562 99.996094 C 65.269531 99.996094 66.285156 100.34375 66.894531 101.039062 C 67.054688 101.222656 67.132812 101.390625 67.132812 101.539062 C 67.132812 101.800781 66.996094 101.933594 66.71875 101.933594 C 66.605469 101.933594 66.433594 101.855469 66.203125 101.699219 C 65.976562 101.546875 65.71875 101.402344 65.429688 101.265625 C 64.933594 101.039062 64.378906 100.925781 63.773438 100.925781 C 63.183594 100.925781 62.699219 101.046875 62.324219 101.285156 C 61.875 101.566406 61.648438 101.988281 61.648438 102.546875 C 61.648438 103.207031 62.144531 103.691406 63.140625 103.996094 L 65.84375 104.839844 C 66.890625 105.300781 67.414062 106.113281 67.414062 107.277344 C 67.414062 108.179688 67.042969 108.886719 66.300781 109.402344 C 65.679688 109.800781 64.867188 110.003906 63.875 110.003906 C 63.261719 110.003906 62.617188 109.898438 61.9375 109.691406 C 61.035156 109.414062 60.585938 109.050781 60.585938 108.59375 C 60.585938 108.328125 60.722656 108.191406 60.992188 108.191406 C 61.125 108.191406 61.429688 108.324219 61.910156 108.585938 C 62.5 108.910156 63.179688 109.074219 63.949219 109.074219 C 64.617188 109.074219 65.179688 108.925781 65.640625 108.636719 C 66.183594 108.292969 66.457031 107.808594 66.457031 107.179688 C 66.457031 106.296875 65.929688 105.722656 64.878906 105.460938 L 62.839844 104.8125 C 61.40625 104.433594 60.691406 103.6875 60.691406 102.574219 Z M 60.691406 102.574219 "/>
<path style=" stroke:none;fill-rule:nonzero;fill:rgb(0%,0%,0%);fill-opacity:1;" d="M 60.828125 121.023438 L 60.828125 117.082031 C 60.828125 115.023438 61.917969 113.996094 64.101562 113.996094 C 64.988281 113.996094 65.703125 114.195312 66.242188 114.585938 C 66.863281 115.070312 67.171875 115.71875 67.171875 116.523438 C 67.171875 116.914062 67.015625 117.109375 66.699219 117.109375 C 66.476562 117.109375 66.3125 116.925781 66.214844 116.558594 C 66.152344 116.246094 66.035156 115.945312 65.863281 115.664062 C 65.589844 115.171875 64.980469 114.925781 64.03125 114.925781 C 63.21875 114.925781 62.636719 115.128906 62.285156 115.539062 C 61.957031 115.90625 61.792969 116.503906 61.792969 117.335938 L 61.792969 120.621094 C 61.792969 121.476562 61.964844 122.085938 62.3125 122.453125 C 62.683594 122.867188 63.277344 123.074219 64.089844 123.074219 C 65.3125 123.074219 66.023438 122.640625 66.214844 121.777344 C 66.285156 121.457031 66.324219 121.292969 66.328125 121.285156 C 66.398438 121.105469 66.523438 121.015625 66.699219 121.015625 C 67.015625 121.015625 67.171875 121.210938 67.171875 121.601562 C 67.171875 122.375 66.847656 123 66.195312 123.472656 C 65.667969 123.820312 64.980469 123.996094 64.128906 123.996094 C 63.121094 123.996094 62.328125 123.757812 61.757812 123.277344 C 61.136719 122.765625 60.828125 122.015625 60.828125 121.023438 Z M 60.828125 121.023438 "/>
</g>
</svg>

<svg xmlns="http://www.w3.org/2000/svg" width="128" height="128"><path fill="none" d="M0 0h128v128H0z" style="fill:#fff;fill-opacity:0;stroke:none"/><path d="M26.5 27.5h11v36h-11Zm0 0" style="fill-rule:nonzero;fill:#fff;fill-opacity:1;stroke-width:1.00004;stroke-linecap:round;stroke-linejoin:round;stroke:#000;stroke-opacity:1;stroke-miterlimit:4" transform="scale(2)"/><path d="m60.016 66.176 2.476-7.781c.086-.262.238-.395.457-.395.309 0 .461.133.461.395 0 .09-.02.183-.05.289l-2.895 9.007c-.067.204-.219.309-.457.309-.238 0-.39-.105-.457-.309l-2.918-9.007a1.011 1.011 0 0 1-.047-.29c0-.261.148-.394.45-.394.21 0 .359.133.444.395ZM65.746 66.879h5.063c.406 0 .605.156.605.473 0 .304-.2.457-.605.457h-5.52a.543.543 0 0 1-.344-.114c-.105-.078-.156-.203-.156-.37v-8.669c0-.437.16-.656.477-.656.32 0 .48.23.48.695ZM65.23 77.477l2.06 3.691a.88.88 0 0 1 .124.422c0 .277-.144.414-.437.414-.204 0-.375-.121-.512-.36l-2.227-3.968h-2.687v3.777c0 .367-.16.55-.48.55-.325 0-.485-.183-.485-.55v-8.742c0-.2.031-.336.098-.41.066-.074.199-.114.394-.114h3.543c.813 0 1.438.258 1.879.77.414.484.617 1.137.617 1.965 0 .75-.133 1.312-.406 1.683-.27.368-.762.66-1.48.872Zm-3.68-.73h2.645c1.313 0 1.965-.606 1.965-1.817 0-.528-.113-.95-.344-1.27-.257-.367-.64-.547-1.148-.547h-3.117ZM65.879 93.02h-3.817l-.542 2.695c-.04.187-.176.281-.418.281-.332 0-.489-.129-.47-.394.013-.18.255-1.446.723-3.793.434-2.141.727-3.543.883-4.204.219-1.07.805-1.605 1.758-1.605s1.54.535 1.762 1.605c.289 1.375.582 2.75.87 4.125.497 2.348.743 3.614.743 3.797 0 .317-.168.477-.5.477-.266 0-.418-.113-.465-.344Zm-3.656-.93h3.472l-.78-3.965c-.157-.797-.478-1.2-.966-1.2-.293 0-.511.114-.664.333-.12.183-.222.496-.308.937ZM60.691 102.574c0-.879.32-1.543.957-1.992.555-.39 1.29-.586 2.204-.586 1.418 0 2.433.348 3.043 1.043.16.184.238.352.238.5 0 .262-.137.395-.414.395-.114 0-.285-.079-.516-.235a5.93 5.93 0 0 0-.773-.433 3.95 3.95 0 0 0-1.657-.34c-.59 0-1.074.12-1.449.36-.449.28-.676.702-.676 1.26 0 .661.497 1.145 1.493 1.45l2.703.844c1.047.46 1.57 1.273 1.57 2.437 0 .903-.371 1.61-1.113 2.125-.621.399-1.434.602-2.426.602a6.651 6.651 0 0 1-1.938-.313c-.902-.277-1.351-.64-1.351-1.097 0-.266.137-.403.406-.403.133 0 .438.133.918.395.59.324 1.27.488 2.04.488.667 0 1.23-.148 1.69-.437.544-.344.817-.828.817-1.457 0-.883-.527-1.457-1.578-1.72l-2.04-.647c-1.433-.38-2.148-1.126-2.148-2.239ZM60.828 121.023v-3.941c0-2.059 1.09-3.086 3.274-3.086.886 0 1.601.2 2.14.59.621.484.93 1.133.93 1.937 0 .391-.156.586-.473.586-.222 0-.386-.183-.484-.55a2.74 2.74 0 0 0-.352-.895c-.273-.492-.883-.738-1.832-.738-.812 0-1.394.203-1.746.613-.328.367-.492.965-.492 1.797v3.285c0 .856.172 1.465.52 1.832.37.414.964.621 1.777.621 1.222 0 1.933-.433 2.125-1.297.07-.32.11-.484.113-.492.07-.18.195-.27.371-.27.317 0 .473.196.473.587 0 .773-.324 1.398-.977 1.87-.527.348-1.215.524-2.066.524-1.008 0-1.8-.238-2.371-.719-.621-.511-.93-1.261-.93-2.254Zm0 0" style="stroke:none;fill-rule:nonzero;fill:#000;fill-opacity:1"/></svg>
